qtOgitor/res/icons/move.svg

<svg width="40" xmlns="http://www.w3.org/2000/svg" height="41.25" viewBox="0 0 32 33">
<path fill="#4f4f56" d="m12,11l3.8-6.0514 3.8,6.0514h-2.61l-.01,4.01 4,.01 .05-2.82 6.3529,3.6029-6.3729,3.9971 .02-2.82h-4.04v4.02h2.61l-3.8,6.25-3.8-6.25h3.02l-.01-4.01-4.01-.01-.02,2.82-6.4443-3.7814 6.4243-3.8186-.01,2.81h4.07l-.01-4.01h-3.01z"/>
</svg>

<?xml version="1.0" encoding="UTF-8" standalone="no"?>
<!-- Created with Inkscape (http://www.inkscape.org/) -->
<svg
   xmlns:dc="http://purl.org/dc/elements/1.1/"
   xmlns:cc="http://creativecommons.org/ns#"
   xmlns:rdf="http://www.w3.org/1999/02/22-rdf-syntax-ns#"
   xmlns:svg="http://www.w3.org/2000/svg"
   xmlns="http://www.w3.org/2000/svg"
   xmlns:sodipodi="http://sodipodi.sourceforge.net/DTD/sodipodi-0.dtd"
   xmlns:inkscape="http://www.inkscape.org/namespaces/inkscape"
   version="1.0"
   width="32pt"
   height="33pt"
   viewBox="0 0 32 33"
   id="svg2"
   sodipodi:version="0.32"
   inkscape:version="0.46"
   sodipodi:docname="move.svg"
   inkscape:output_extension="org.inkscape.output.svg.inkscape">
  <metadata
     id="metadata7">
    <rdf:RDF>
      <cc:Work
         rdf:about="">
        <dc:format>image/svg+xml</dc:format>
        <dc:type
           rdf:resource="http://purl.org/dc/dcmitype/StillImage" />
      </cc:Work>
    </rdf:RDF>
  </metadata>
  <sodipodi:namedview
     inkscape:window-height="750"
     inkscape:window-width="1280"
     inkscape:pageshadow="2"
     inkscape:pageopacity="0.0"
     guidetolerance="10.0"
     gridtolerance="10.0"
     objecttolerance="10.0"
     borderopacity="1.0"
     bordercolor="#666666"
     pagecolor="#ffffff"
     id="base"
     showgrid="false"
     inkscape:zoom="11.2"
     inkscape:cx="20"
     inkscape:cy="20.625"
     inkscape:window-x="-8"
     inkscape:window-y="-8"
     inkscape:current-layer="svg2" />
  <defs
     id="defs8">
    <inkscape:perspective
       sodipodi:type="inkscape:persp3d"
       inkscape:vp_x="0 : 20.625 : 1"
       inkscape:vp_y="0 : 1000 : 0"
       inkscape:vp_z="40 : 20.625 : 1"
       inkscape:persp3d-origin="20 : 13.75 : 1"
       id="perspective9" />
  </defs>
  <g
     id="#4f4f56ff">
    <path
       d="M 12,11 L 15.8,4.9485714 L 19.6,11 L 16.99,11 L 16.98,15.01 L 20.98,15.02 L 21.03,12.2 L 27.382857,15.802857 L 21.01,19.8 L 21.03,16.98 L 16.99,16.98 L 16.99,21 L 19.6,21 L 15.8,27.25 L 12,21 L 15.02,21 L 15.01,16.99 L 11,16.98 L 10.98,19.8 L 4.5357143,16.018571 L 10.96,12.2 L 10.95,15.01 L 15.02,15.01 L 15.01,11 L 12,11 z"
       id="path5"
       style="opacity:1;fill:#4f4f56"
       sodipodi:nodetypes="ccccccccccccccccccccccccc" />
  </g>
</svg>
